editaveis/icones/comentario.svg

<?xml version="1.0" encoding="utf-8"?>
<!-- Generator: Adobe Illustrator 16.0.0, SVG Export Plug-In . SVG Version: 6.00 Build 0)  -->
<!DOCTYPE svg PUBLIC "-//W3C//DTD SVG 1.1//EN" "http://www.w3.org/Graphics/SVG/1.1/DTD/svg11.dtd">
<svg version="1.1" id="Camada_1" xmlns="http://www.w3.org/2000/svg" xmlns:xlink="http://www.w3.org/1999/xlink" x="0px" y="0px"
	 width="30px" height="30px" viewBox="0 0 30 30" enable-background="new 0 0 30 30" xml:space="preserve">
<path d="M23,5H7C5.9,5,5.01,5.9,5.01,7L5,25l4-4h14c1.1,0,2-0.9,2-2V7C25,5.9,24.1,5,23,5z M9,12h12v2H9V12z M17,17H9v-2h8V17z
	 M21,11H9V9h12V11z"/>
</svg>

<svg width="30" height="30" viewBox="0 0 30 30" fill="none" xmlns="http://www.w3.org/2000/svg">
<rect width="30" height="30" fill="white"/>
<path d="M23 5H7C5.9 5 5.01 5.9 5.01 7L5 25L9 21H23C24.1 21 25 20.1 25 19V7C25 5.9 24.1 5 23 5ZM9 12H21V14H9V12ZM17 17H9V15H17V17ZM21 11H9V9H21V11Z" fill="black"/>
</svg>
